X: 137
T: Jumping Johnny
T: (An Interval Study.)
O: From Nursery Rhymes.
%R: air, march
B: "The Everyday Song Book", 1927
F: http://www.library.pitt.edu/happybirthday/pdf/The_Everyday_Song_Book.pdf
Z: 2017 John Chambers <jc:trillian.mit.edu>
M: 2/4
L: 1/4
K: Eb
% - - - - - - - - - - - - - - - - - - - - - - - - - - - - -
[| E F | E G | E A | E B | E c | B e | e d | e2 |
w: Jump-ing John-ny, Blithe and bon-ny, Hop and skips the live-long day;
%
e d | e c | e B | e A | G B | F B | G E | E2 |]
w: Tom and Ben-ny, Stu-pid Jen-ny, Join the jol-ly jump-ing play.
% - - - - - - - - - - - - - - - - - - - - - - - - - - - - -
